X: 16469
T: Hag's Dream, The
R: slip jig
M: 9/8
K: Dmajor
|:d2 d f2 g afd|d2 d f2 d ecA|d2 d f2 g afd|f2 f gec d3:|
|:A2 A c2 d ecA|f2 f c2 d ecA|A2 A c2 d ecA|1 fd/e/f g>ec d3:|2 f/g/af g>ec d2||

